app/assets/images/front/logo-text.svg

<?xml version="1.0" encoding="UTF-8"?>
<svg width="190px" height="124px" viewBox="0 0 190 124" version="1.1" xmlns="http://www.w3.org/2000/svg" xmlns:xlink="http://www.w3.org/1999/xlink">
    <!-- Generator: Sketch 48.2 (47327) - http://www.bohemiancoding.com/sketch -->
    <title>logo</title>
    <desc>Created with Sketch.</desc>
    <defs></defs>
    <g id="logo" stroke="none" stroke-width="1" fill="none" fill-rule="evenodd" transform="translate(-5.000000, -5.000000)">
        <g transform="translate(5.000000, 5.000000)" fill="#FF001E" fill-rule="nonzero" id="Shape">
            <path d="M18.74,60.82 C9.99,60.69 5.65,57.65 3.08,56.38 C2.35333333,57.8866667 1.63333333,59.28 0.92,60.56 C5.68166216,65.3208057 11.7776326,68.5222364 18.4,69.74 C29.56,71.74 34.89,65.3 34.83,54.34 C34.89,41.45 28.75,39.71 17.31,42.19 C8.02,44.41 5.9,45.66 5.85,43.19 C5.8,40.72 10.55,36.46 16.46,33.1 C22.6,29.61 27.54,29.92 31.59,32.85 C32.4366667,30.1033333 33.2866667,27.2933333 34.14,24.42 C30.14,18.96 23.89,18.98 16.36,24.59 C7.36,31.59 1.74,40.23 1.72,45.81 C1.79,51.64 5.55,51.25 17.14,50.54 C27.32,50 30,51.39 30,55.21 C30,59.03 25.92,60.82 18.74,60.82 Z"></path>
            <path d="M71,73.49 L76.92,73.68 L76.92,71.27 C70.61,47.8 64.35,25.27 58.2,5.14 C56.5933333,5.59333333 54.9933333,6.07666667 53.4,6.59 C47.3,29.82 41.32,51.2 35.51,69.18 C35.51,69.8466667 35.51,70.4833333 35.51,71.09 C37.3366667,71.2766667 39.1766667,71.4533333 41.03,71.62 C42.5633333,66.5266667 44.1033333,61.2266667 45.65,55.72 C52.33,55.44 59.19,55.22 66.14,55.06 C67.74,61.1 69.36,67.2433333 71,73.49 Z M49.08,43.42 C51.29,35.3 53.52,26.85 55.77,18.15 C58,25.8 60.27,33.8 62.54,42.06 C58,42.4333333 53.5133333,42.8866667 49.08,43.42 Z"></path>
            <path d="M112.88,73.69 L112.88,59.49 C104.07,59.49 95.17,59.49 86.32,59.49 C86.32,39.7833333 86.32,20.0766667 86.32,0.37 C84.5466667,0.483333333 82.7733333,0.63 81,0.81 C81,25.1433333 81,49.4766667 81,73.81 C91.6,74 102.31,74 112.88,73.69 Z"></path>
            <path d="M152.25,12.73 C150.596667,11.9566667 148.93,11.22 147.25,10.52 C147.25,20.8133333 147.25,31.1066667 147.25,41.4 C147.25,53.97 142.56,59.92 134.32,59.99 C126.08,60.06 121,53.09 121,38.28 L121,2.57 C119.246667,2.23 117.49,1.92333333 115.73,1.65 L115.73,38.49 C115.73,62.22 122.91,74.75 134.35,73.8 C145.8,72.65 152.22,61.5 152.24,42.72 C152.246667,32.7266667 152.25,22.73 152.25,12.73 Z"></path>
            <path d="M188.61,37.83 C179.01703,28.502595 168.070223,20.6776676 156.14,14.62 C156.14,18.3 156.14,21.9666667 156.14,25.62 C161.140731,27.553305 166.031438,29.7599654 170.79,32.23 L170.79,69.09 L175.31,68.42 C175.31,57.1733333 175.31,45.9266667 175.31,34.68 C179.914201,37.2916838 184.355695,40.1803247 188.61,43.33 L188.61,37.83 Z"></path>
            <path d="M2.87,73.92 L1.16,73.09 L1.16,84.77 C4.51577818,88.0836749 8.04401327,91.2180295 11.73,94.16 L11.73,90.96 C8.69,88.7733333 5.73666667,86.44 2.87,83.96 L2.87,73.92 Z"></path>
            <path d="M15.12,89.42 C18.3733333,91.3266667 21.6666667,93.1066667 25,94.76 C25,93.4266667 25,92.12 25,90.84 C21.62,89.3866667 18.3133333,87.8166667 15.08,86.13 L15.08,82.48 C18.4666667,83.9933333 21.9433333,85.3966667 25.51,86.69 L25.51,82.69 C21.2966667,81.4033333 17.2,79.9866667 13.22,78.44 L13.22,95.38 C17.1979544,98.4601867 21.347999,101.311464 25.65,103.92 C25.65,102.586667 25.65,101.253333 25.65,99.92 C22.0366667,97.92 18.51,95.7666667 15.07,93.46 L15.12,89.42 Z"></path>
            <path d="M34.49,94.54 C30.31,92.32 29.24,91.67 29.23,90.08 C29.22,88.49 31.46,88.53 34.11,89.32 C36.8425549,90.2193084 39.1854776,92.0258994 40.75,94.44 C41.11,93.42 41.4733333,92.3866667 41.84,91.34 C40.4196063,88.0356219 37.5514039,85.5734713 34.07,84.67 C30.02,83.67 27.28,84.9 27.27,89.44 C27.26,93.98 29.2,95.91 34.42,98.95 C38.96,101.54 40.07,102.54 40.07,104.35 C40.07,106.16 38.34,106.24 35.14,104.78 C32.1093411,103.259234 29.5995713,100.871297 27.93,97.92 C27.5833333,98.74 27.25,99.5466667 26.93,100.34 C28.5575435,104.160806 31.3921283,107.343128 35,109.4 C40,111.92 42.16,109.72 42.15,104.89 C42.14,99.14 39.59,97.21 34.49,94.54 Z"></path>
            <path d="M59.31,90 C56.2966667,89.5866667 53.2966667,89.1166667 50.31,88.59 L50.31,115.59 C53.27,116.636667 56.27,117.573333 59.31,118.4 C63.81,119.67 66.55,114.69 66.54,105.54 C66.53,96.39 63.81,90.56 59.31,90 Z M60,113 C57.4866667,112.386667 54.99,111.72 52.51,111 L52.51,94.3 C54.99,94.7933333 57.4866667,95.2433333 60,95.65 C62.78,96.08 64.41,99.65 64.4,105.18 C64.39,110.71 62.74,113.68 60,113 Z"></path>
            <path d="M70.86,108.64 C74.6533333,109.186667 78.47,109.603333 82.31,109.89 C82.31,107.99 82.31,106.093333 82.31,104.2 C78.4766667,103.946667 74.66,103.576667 70.86,103.09 L70.86,97 C74.86,97.4333333 78.86,97.7666667 82.86,98 L82.86,92.18 C78.0933333,91.9666667 73.3533333,91.6333333 68.64,91.18 L68.64,120.67 C73.3958571,121.618825 78.199534,122.309833 83.03,122.74 C83.03,120.8 83.03,118.86 83.03,116.92 C78.9433333,116.593333 74.8766667,116.096667 70.83,115.43 L70.86,108.64 Z"></path>
            <path d="M92.84,104.61 C88.24,103.61 87.02,103.22 87.02,101.02 C87.02,98.61 89.51,97.93 92.42,97.96 C95.33,97.99 97.76,99.57 99.63,101.9 L100.8,97.73 C98.94,93.97 96.08,91.92 92.37,91.88 C87.92,91.88 84.82,94.56 84.82,101.04 C84.82,107.52 87.02,109.09 92.76,110.39 C97.76,111.46 98.9,112.15 98.9,114.39 C98.9,116.63 97.04,117.62 93.55,117.59 C89.27,117.54 86.93,114.59 85.55,112.64 L84.38,116.73 C85.58,119.49 88.45,123.59 93.38,123.66 C98.8,123.66 101.12,119.82 101.12,114.03 C101.12,107.1 98.43,105.81 92.84,104.61 Z"></path>
            <polygon points="103.14 122.93 105.36 122.78 105.36 92.19 103.14 92.27"></polygon>
            <path d="M117,109.94 C118.72,109.706667 120.436667,109.45 122.15,109.17 L122.15,111 C120.92,113.52 119.02,115.73 115.98,116.18 C112.05,116.75 109.85,113.18 109.85,107.18 C109.85,101.18 112.53,97.37 116.32,97.02 C119.2,96.74 120.93,97.86 122.7,100.27 L123.91,96.27 C122.25,92.91 119.66,90.84 116.31,91.1 C111.21,91.48 107.62,97.47 107.62,107.38 C107.62,117.29 110.74,122.89 115.96,122.06 C118.33,121.69 120.65,119.45 122.17,115.75 L122.29,120.43 L124.29,119.99 L124.29,103.23 C121.856667,103.616667 119.413333,103.95 116.96,104.23 L117,109.94 Z"></path>
            <path d="M140.39,109.92 C136.81,103.92 133.19,97.26 129.54,90.13 L126.69,90.49 L126.69,119.39 L128.86,118.85 C128.86,111.243333 128.86,103.633333 128.86,96.02 C132.52,103.02 136.14,109.62 139.73,115.52 C140.663333,115.193333 141.59,114.86 142.51,114.52 L142.51,88 L140.4,88.39 C140.393333,95.5766667 140.39,102.753333 140.39,109.92 Z"></path>
            <path d="M147.18,102 C150.78,100.793333 154.32,99.46 157.8,98 C157.8,96.5666667 157.8,95.1333333 157.8,93.7 C154.32,94.9933333 150.78,96.1733333 147.18,97.24 C147.18,95.48 147.18,93.72 147.18,91.96 C150.96,91.0066667 154.676667,89.9433333 158.33,88.77 C158.33,87.3166667 158.33,85.8633333 158.33,84.41 C154.01,85.5766667 149.596667,86.6166667 145.09,87.53 L145.09,113.53 C149.666788,111.687628 154.137085,109.591029 158.48,107.25 C158.48,105.796667 158.48,104.343333 158.48,102.89 C154.78,104.696667 151.013333,106.33 147.18,107.79 C147.18,105.856667 147.18,103.926667 147.18,102 Z"></path>
            <path d="M174.68,84.67 C174.68,80.9 173.16,79.8 170.49,80.67 C167.243333,81.79 163.91,82.8266667 160.49,83.78 C160.49,91.2066667 160.49,98.6333333 160.49,106.06 L162.49,104.92 C162.49,102.14 162.49,99.36 162.49,96.58 C164.696667,95.5333333 166.87,94.4333333 169.01,93.28 C170.056667,95.24 171.093333,97.05 172.12,98.71 C172.86,98.19 173.596667,97.6566667 174.33,97.11 C174.33,96.91 174.33,96.71 174.33,96.52 C173.296667,95.06 172.256667,93.4433333 171.21,91.67 C173.523398,90.1146901 174.84291,87.4528513 174.68,84.67 Z M170.91,88.67 C168.17,90.0033333 165.373333,91.2766667 162.52,92.49 C162.52,90.81 162.52,89.1433333 162.52,87.49 C165.366667,86.49 168.163333,85.4233333 170.91,84.29 C172.25,83.74 172.8,84.29 172.8,85.63 C172.839158,86.933828 172.094986,88.13474 170.91,88.68 L170.91,88.67 Z"></path>
            <path d="M182.62,81.76 C178.93,83.52 177.88,83.83 177.89,82.66 C177.9,81.49 179.95,79.98 182.28,78.79 C184.014658,77.8220862 185.963706,77.3030275 187.95,77.28 C188.25,76.5466667 188.55,75.83 188.85,75.13 C187.43,74.53 185.22,74.65 182.25,75.91 C178.68,77.38 176.07,79.91 176.07,83.65 C176.07,87.39 177.95,87.13 182.56,84.55 C186.56,82.26 187.38,81.76 187.39,82.67 C187.4,83.58 185.97,85.2 183.19,87.45 C179.77,90.21 177.82,90.1 176.69,89.75 C176.363333,90.73 176.03,91.73 175.69,92.75 C176.69,93.62 179.11,93.93 183.03,90.41 C187.34,86.49 189.03,83.26 189.03,81.15 C189.08,78.54 187.07,79.58 182.62,81.76 Z"></path>
        </g>
    </g>
</svg>

<svg width="190" height="124" viewBox="0 0 190 124" xmlns="http://www.w3.org/2000/svg"><title>logo</title><path d="M18.74 60.82c-8.75-.13-13.09-3.17-15.66-4.44a79.956 79.956 0 0 1-2.16 4.18 33.22 33.22 0 0 0 17.48 9.18c11.16 2 16.49-4.44 16.43-15.4.06-12.89-6.08-14.63-17.52-12.15-9.29 2.22-11.41 3.47-11.46 1-.05-2.47 4.7-6.73 10.61-10.09 6.14-3.49 11.08-3.18 15.13-.25a853.427 853.427 0 0 0 2.55-8.43c-4-5.46-10.25-5.44-17.78.17-9 7-14.62 15.64-14.64 21.22.07 5.83 3.83 5.44 15.42 4.73C27.32 50 30 51.39 30 55.21s-4.08 5.61-11.26 5.61zM71 73.49l5.92.19v-2.41c-6.31-23.47-12.57-46-18.72-66.13-1.607.453-3.207.937-4.8 1.45-6.1 23.23-12.08 44.61-17.89 62.59v1.91c1.827.187 3.667.363 5.52.53a891.051 891.051 0 0 0 4.62-15.9c6.68-.28 13.54-.5 20.49-.66 1.6 6.04 3.22 12.183 4.86 18.43zM49.08 43.42c2.21-8.12 4.44-16.57 6.69-25.27 2.23 7.65 4.5 15.65 6.77 23.91-4.54.373-9.027.827-13.46 1.36zm63.8 30.27v-14.2H86.32V.37c-1.773.113-3.547.26-5.32.44v73c10.6.19 21.31.19 31.88-.12zm39.37-60.96c-1.653-.773-3.32-1.51-5-2.21V41.4c0 12.57-4.69 18.52-12.93 18.59-8.24.07-13.32-6.9-13.32-21.71V2.57a142.78 142.78 0 0 0-5.27-.92v36.84c0 23.73 7.18 36.26 18.62 35.31 11.45-1.15 17.87-12.3 17.89-31.08.007-9.993.01-19.99.01-29.99zm36.36 25.1a132.87 132.87 0 0 0-32.47-23.21v11c5 1.933 9.891 4.14 14.65 6.61v36.86l4.52-.67V34.68a130.86 130.86 0 0 1 13.3 8.65v-5.5zM2.87 73.92l-1.71-.83v11.68a134.11 134.11 0 0 0 10.57 9.39v-3.2a125.943 125.943 0 0 1-8.86-7V73.92zm12.25 15.5A161.193 161.193 0 0 0 25 94.76v-3.92a146.922 146.922 0 0 1-9.92-4.71v-3.65a155.435 155.435 0 0 0 10.43 4.21v-4a175.119 175.119 0 0 1-12.29-4.25v16.94a132.59 132.59 0 0 0 12.43 8.54v-4c-3.613-2-7.14-4.153-10.58-6.46l.05-4.04zm19.37 5.12c-4.18-2.22-5.25-2.87-5.26-4.46-.01-1.59 2.23-1.55 4.88-.76a12.61 12.61 0 0 1 6.64 5.12c.36-1.02.723-2.053 1.09-3.1a11.64 11.64 0 0 0-7.77-6.67c-4.05-1-6.79.23-6.8 4.77-.01 4.54 1.93 6.47 7.15 9.51 4.54 2.59 5.65 3.59 5.65 5.4 0 1.81-1.73 1.89-4.93.43a17.09 17.09 0 0 1-7.21-6.86c-.347.82-.68 1.627-1 2.42A19 19 0 0 0 35 109.4c5 2.52 7.16.32 7.15-4.51-.01-5.75-2.56-7.68-7.66-10.35zM59.31 90a238.298 238.298 0 0 1-9-1.41v27a126.76 126.76 0 0 0 9 2.81c4.5 1.27 7.24-3.71 7.23-12.86-.01-9.15-2.73-14.98-7.23-15.54zm.69 23c-2.513-.613-5.01-1.28-7.49-2V94.3c2.48.493 4.977.943 7.49 1.35 2.78.43 4.41 4 4.4 9.53-.01 5.53-1.66 8.5-4.4 7.82zm10.86-4.36c3.793.547 7.61.963 11.45 1.25v-5.69c-3.833-.253-7.65-.623-11.45-1.11V97c4 .433 8 .767 12 1v-5.82a278.622 278.622 0 0 1-14.22-1v29.49c4.756.949 9.56 1.64 14.39 2.07v-5.82a147.15 147.15 0 0 1-12.2-1.49l.03-6.79zm21.98-4.03c-4.6-1-5.82-1.39-5.82-3.59 0-2.41 2.49-3.09 5.4-3.06 2.91.03 5.34 1.61 7.21 3.94l1.17-4.17c-1.86-3.76-4.72-5.81-8.43-5.85-4.45 0-7.55 2.68-7.55 9.16s2.2 8.05 7.94 9.35c5 1.07 6.14 1.76 6.14 4s-1.86 3.23-5.35 3.2c-4.28-.05-6.62-3-8-4.95l-1.17 4.09c1.2 2.76 4.07 6.86 9 6.93 5.42 0 7.74-3.84 7.74-9.63 0-6.93-2.69-8.22-8.28-9.42zm10.3 18.32l2.22-.15V92.19l-2.22.08zM117 109.94c1.72-.233 3.437-.49 5.15-.77V111c-1.23 2.52-3.13 4.73-6.17 5.18-3.93.57-6.13-3-6.13-9s2.68-9.81 6.47-10.16c2.88-.28 4.61.84 6.38 3.25l1.21-4c-1.66-3.36-4.25-5.43-7.6-5.17-5.1.38-8.69 6.37-8.69 16.28s3.12 15.51 8.34 14.68c2.37-.37 4.69-2.61 6.21-6.31l.12 4.68 2-.44v-16.76c-2.433.387-4.877.72-7.33 1l.04 5.71zm23.39-.02c-3.58-6-7.2-12.66-10.85-19.79l-2.85.36v28.9l2.17-.54V96.02c3.66 7 7.28 13.6 10.87 19.5.933-.327 1.86-.66 2.78-1V88l-2.11.39c-.007 7.187-.01 14.363-.01 21.53zm6.79-7.92c3.6-1.207 7.14-2.54 10.62-4v-4.3a165.164 165.164 0 0 1-10.62 3.54v-5.28a181.96 181.96 0 0 0 11.15-3.19v-4.36a213.17 213.17 0 0 1-13.24 3.12v26a132.48 132.48 0 0 0 13.39-6.28v-4.36c-3.7 1.807-7.467 3.44-11.3 4.9V102zm27.5-17.33c0-3.77-1.52-4.87-4.19-4a173.596 173.596 0 0 1-10 3.11v22.28l2-1.14v-8.34a142.11 142.11 0 0 0 6.52-3.3 98.994 98.994 0 0 0 3.11 5.43c.74-.52 1.477-1.053 2.21-1.6v-.59a69.97 69.97 0 0 1-3.12-4.85 7.88 7.88 0 0 0 3.47-7zm-3.77 4a181.413 181.413 0 0 1-8.39 3.82v-5c2.847-1 5.643-2.067 8.39-3.2 1.34-.55 1.89 0 1.89 1.34a3.25 3.25 0 0 1-1.89 3.05v-.01zm11.71-6.91c-3.69 1.76-4.74 2.07-4.73.9.01-1.17 2.06-2.68 4.39-3.87a11.92 11.92 0 0 1 5.67-1.51c.3-.733.6-1.45.9-2.15-1.42-.6-3.63-.48-6.6.78-3.57 1.47-6.18 4-6.18 7.74s1.88 3.48 6.49.9c4-2.29 4.82-2.79 4.83-1.88.01.91-1.42 2.53-4.2 4.78-3.42 2.76-5.37 2.65-6.5 2.3l-1 3c1 .87 3.42 1.18 7.34-2.34 4.31-3.92 6-7.15 6-9.26.05-2.61-1.96-1.57-6.41.61z" fill="#FF001E"/></svg>
